X: 119
T: My Lord Byron's Maggot
M:6/8
L:1/8
Q:160
S:Playford
O:Manuscript
A:English
K:G
A|AFA AFA|AFA A2 d|dAd dAd dAd d2 d|fga efg |fga efg|fga a2 ^g|a3 a3|fdd gee| fdd gee|fdd g>ag/2f/2|e3 e2 f/2g/2|a2 z g2 z| f2 z e2 z| f2 z g2 z| f2 z e2 A| f/2g/2ad eAa|f/2g/2ad eAa|f>ed e e2|d3 d3:|

